dist/icons/star.svg

<?xml version="1.0" encoding="utf-8"?>
<!-- Generated by IcoMoon.io -->
<!DOCTYPE svg PUBLIC "-//W3C//DTD SVG 1.1//EN" "http://www.w3.org/Graphics/SVG/1.1/DTD/svg11.dtd">
<svg version="1.1" xmlns="http://www.w3.org/2000/svg" xmlns:xlink="http://www.w3.org/1999/xlink" width="32" height="32" viewBox="0 0 32 32">
<path d="M16 6.848l2.324 7.152h7.521l-6.084 4.421 2.324 7.152-6.084-4.42-6.084 4.42 2.324-7.152-6.084-4.421h7.521l2.324-7.153zM16 0.376l-3.777 11.625h-12.223l9.889 7.184-3.777 11.625 9.889-7.184 9.889 7.184-3.777-11.625 9.889-7.184h-12.223l-3.777-11.625z"></path>
</svg>

<svg xmlns="http://www.w3.org/2000/svg" width="32" height="32" viewBox="0 0 32 32"><path d="M16 6.848L18.324 14h7.52l-6.083 4.42 2.325 7.153L16 21.153l-6.083 4.42 2.324-7.152L6.158 14h7.52l2.325-7.153zm0-6.472L12.223 12H0l9.89 7.185L6.11 30.81l9.89-7.184 9.888 7.184-3.777-11.625L32.003 12H19.778L16 .377z"/></svg>
